styles/all/theme/assets/images/chevron-up-style6.svg

<?xml version="1.0" encoding="UTF-8" standalone="no"?>
<!DOCTYPE svg PUBLIC "-//W3C//DTD SVG 20010904//EN" "http://www.w3.org/TR/2001/REC-SVG-20010904/DTD/svg10.dtd">
<svg version="1.0" xmlns="http://www.w3.org/2000/svg" width="30" height="30" viewBox="0 0 2048 2048"><path d="M1540 1023q0-27-18-45l-362-362-91-91q-18-18-45-18t-45 18l-91 91-362 362q-18 18-18 45t18 45l91 91q18 18 45 18t45-18l189-189v502q0 26 19 45t45 19h128q26 0 45-19t19-45v-502l189 189q19 19 45 19t45-19l91-91q18-18 18-45zm252 1q0 209-103 385.5t-279.5 279.5-385.5 103-385.5-103-279.5-279.5-103-385.5 103-385.5 279.5-279.5 385.5-103 385.5 103 279.5 279.5 103 385.5z"/></svg>

<?xml version="1.0" encoding="UTF-8" standalone="no"?>
<!DOCTYPE svg PUBLIC "-//W3C//DTD SVG 20010904//EN" "http://www.w3.org/TR/2001/REC-SVG-20010904/DTD/svg10.dtd">
<svg version="1.0" xmlns="http://www.w3.org/2000/svg" width="30" height="30" viewBox="0 0 2048 2048">
  <g id="g3338" transform="matrix(1.2937853,0,0,1.2937853,-300.83616,-300.83616)">
    <path
       id="path4"
       d="m 1540,1023 q 0,-27 -18,-45 l -362,-362 -91,-91 q -18,-18 -45,-18 -27,0 -45,18 l -91,91 -362,362 q -18,18 -18,45 0,27 18,45 l 91,91 q 18,18 45,18 27,0 45,-18 l 189,-189 0,502 q 0,26 19,45 19,19 45,19 l 128,0 q 26,0 45,-19 19,-19 19,-45 l 0,-502 189,189 q 19,19 45,19 26,0 45,-19 l 91,-91 q 18,-18 18,-45 z m 252,1 q 0,209 -103,385.5 Q 1586,1586 1409.5,1689 1233,1792 1024,1792 815,1792 638.5,1689 462,1586 359,1409.5 256,1233 256,1024 256,815 359,638.5 462,462 638.5,359 815,256 1024,256 1233,256 1409.5,359 1586,462 1689,638.5 1792,815 1792,1024 Z" />
  </g>
</svg>
